weather-icons/wi-sunrise.svg

<?xml version="1.0" encoding="UTF-8" standalone="no"?>
<svg
   xmlns:dc="http://purl.org/dc/elements/1.1/"
   xmlns:cc="http://creativecommons.org/ns#"
   xmlns:rdf="http://www.w3.org/1999/02/22-rdf-syntax-ns#"
   xmlns:svg="http://www.w3.org/2000/svg"
   xmlns="http://www.w3.org/2000/svg"
   xmlns:sodipodi="http://sodipodi.sourceforge.net/DTD/sodipodi-0.dtd"
   xmlns:inkscape="http://www.inkscape.org/namespaces/inkscape"
   width="100px"
   height="100px"
   viewBox="0 0 100 100"
   version="1.1"
   id="svg8713"
   sodipodi:docname="wi-sunrise.svg"
   inkscape:version="1.0.2 (e86c870879, 2021-01-15)">
  <metadata
     id="metadata8719">
    <rdf:RDF>
      <cc:Work
         rdf:about="">
        <dc:format>image/svg+xml</dc:format>
        <dc:type
           rdf:resource="http://purl.org/dc/dcmitype/StillImage" />
      </cc:Work>
    </rdf:RDF>
  </metadata>
  <defs
     id="defs8717" />
  <sodipodi:namedview
     pagecolor="#ffffff"
     bordercolor="#666666"
     borderopacity="1"
     objecttolerance="10"
     gridtolerance="10"
     guidetolerance="10"
     inkscape:pageopacity="0"
     inkscape:pageshadow="2"
     inkscape:window-width="1920"
     inkscape:window-height="1016"
     id="namedview8715"
     showgrid="false"
     inkscape:zoom="7.94"
     inkscape:cx="25.755668"
     inkscape:cy="50"
     inkscape:window-x="0"
     inkscape:window-y="0"
     inkscape:window-maximized="1"
     inkscape:current-layer="surface1" />
  <g
     id="surface1">
    <path
       style=" stroke:none;fill-rule:nonzero;fill:rgb(0%,0%,0%);fill-opacity:1;"
       d="M 76.632812,51.199219"
       id="path8735" />
    <path
       style="stroke:none;fill-rule:nonzero;fill:#ff8c00;fill-opacity:1"
       d="m 76.632812,51.199219 c 0,-0.898438 0.300782,-1.664063 0.902344,-2.300781 0.597656,-0.632813 1.332032,-0.964844 2.199219,-0.964844 h 7.832031 c 0.898438,0 1.667969,0.332031 2.300782,0.964844 0.632812,0.636718 0.964843,1.433593 0.964843,2.300781 0,0.933593 -0.332031,1.699219 -0.964843,2.367187 -0.632813,0.667969 -1.402344,1 -2.300782,1 h -7.832031 c -0.902344,0 -1.632813,-0.332031 -2.234375,-0.964844 -0.566406,-0.667968 -0.867188,-1.46875 -0.867188,-2.402343 z"
       id="path8733" />
    <path
       style="stroke:none;fill-rule:nonzero;fill:#ff8c00;fill-opacity:1"
       d="m 67.933594,30.132812 c 0,-0.832031 0.300781,-1.597656 0.898437,-2.300781 l 5.402344,-5.5 c 0.632813,-0.632812 1.433594,-0.964843 2.332031,-0.964843 0.898438,0 1.699219,0.332031 2.300782,0.964843 0.632812,0.632813 0.933593,1.402344 0.933593,2.300781 0,0.96875 -0.300781,1.765626 -0.867187,2.433594 l -5.601563,5.367188 c -0.699219,0.632812 -1.5,0.964844 -2.332031,0.964844 -0.898438,0 -1.632812,-0.296876 -2.199219,-0.933594 -0.566406,-0.632813 -0.867187,-1.398438 -0.867187,-2.332032 z"
       id="path8731" />
    <path
       style="stroke:none;fill-rule:nonzero;fill:#ff8c00;fill-opacity:1"
       d="m 46.765625,21.332031 v -7.664062 c 0,-0.96875 0.300781,-1.734375 0.933594,-2.367188 0.632812,-0.632812 1.433593,-0.933593 2.367187,-0.933593 0.933594,0 1.699219,0.300781 2.332032,0.933593 0.636718,0.632813 0.933593,1.464844 0.933593,2.398438 v 7.667969 c 0,0.964843 -0.296875,1.734374 -0.933593,2.367187 -0.597657,0.597656 -1.398438,0.933594 -2.332032,0.933594 -0.964844,0 -1.734375,-0.300781 -2.367187,-0.933594 -0.632813,-0.632813 -0.933594,-1.433594 -0.933594,-2.402344 z"
       id="path8729" />
    <path
       style="stroke:none;fill-rule:nonzero;fill:#ff8c00;fill-opacity:1"
       d="m 30,51.199219 c 0,3.234375 0.699219,6.167969 2.066406,8.800781 0.06641,0.398438 0.367188,0.601562 0.832032,0.601562 h 6.269531 c 0.230469,0 0.398437,-0.101562 0.5,-0.269531 0.09766,-0.199219 0.06641,-0.398437 -0.06641,-0.632812 -2.136718,-2.566407 -3.203124,-5.398438 -3.203124,-8.5 0,-3.734375 1.335937,-6.933594 4,-9.566407 2.667968,-2.632812 5.867187,-3.933593 9.636718,-3.933593 3.730469,0 6.898438,1.300781 9.53125,3.933593 2.632813,2.632813 3.96875,5.800782 3.96875,9.566407 0,3.132812 -1.070312,5.96875 -3.167968,8.5 -0.132813,0.234375 -0.167969,0.433593 -0.101563,0.632812 0.06641,0.203125 0.234375,0.269531 0.5,0.269531 h 6.335937 c 0.433594,0 0.699219,-0.203124 0.765626,-0.601562 C 69.332031,57.433594 70,54.5 70,51.199219 70,48.5 69.464844,45.898438 68.398438,43.464844 67.332031,41 65.898438,38.898438 64.132812,37.101562 c -1.765624,-1.769531 -3.898437,-3.203124 -6.367187,-4.269531 -2.464844,-1.066406 -5.03125,-1.566406 -7.730469,-1.566406 -2.703125,0 -5.300781,0.535156 -7.769531,1.566406 -2.464844,1.066407 -4.597656,2.46875 -6.398437,4.269531 C 34.066406,38.867188 32.632812,41 31.566406,43.464844 30.535156,45.898438 30,48.464844 30,51.199219 Z"
       id="path8727" />
    <path
       style="stroke:none;fill-rule:nonzero;fill:#3a5b46;fill-opacity:1"
       d="m 26.933594,69.601562 c 0,-0.933593 0.332031,-1.703124 0.964844,-2.269531 0.601562,-0.566406 1.335937,-0.867187 2.269531,-0.867187 h 8.765625 l 10.367187,-9.730469 c 0.332031,-0.269531 0.699219,-0.269531 1.132813,0 l 10.53125,9.730469 h 9.234375 c 0.902343,0 1.667969,0.300781 2.300781,0.933594 0.632812,0.601562 0.964844,1.367187 0.964844,2.234374 0,0.902344 -0.332032,1.667969 -0.964844,2.300782 -0.632812,0.632812 -1.398438,0.964844 -2.300781,0.964844 H 58.933594 c -0.332032,0 -0.667969,-0.06641 -0.96875,-0.230469 l -8.03125,-7.566407 -7.96875,7.566407 c -0.265625,0.164062 -0.566406,0.230469 -0.929688,0.230469 H 30.167969 c -0.902344,0 -1.667969,-0.332032 -2.300781,-0.964844 C 27.234375,71.265625 26.933594,70.5 26.933594,69.601562 Z"
       id="path8725" />
    <path
       style="stroke:none;fill-rule:nonzero;fill:#ff8c00;fill-opacity:1"
       d="m 20.265625,24.601562 c 0,-0.902343 0.300781,-1.667968 0.867187,-2.269531 0.765626,-0.664062 1.535157,-1 2.367188,-1 0.867188,0 1.632812,0.335938 2.265625,0.96875 l 5.46875,5.5 c 0.632813,0.734375 0.933594,1.5 0.933594,2.300781 0,0.933594 -0.300781,1.730469 -0.902344,2.332032 -0.597656,0.601562 -1.332031,0.933594 -2.199219,0.933594 -0.800781,0 -1.601562,-0.332032 -2.332031,-0.96875 L 21.132812,27.035156 C 20.566406,26.332031 20.265625,25.5 20.265625,24.601562 Z"
       id="path8723" />
    <path
       style="stroke:none;fill-rule:nonzero;fill:#ff8c00;fill-opacity:1"
       d="m 9.167969,51.199219 c 0,-0.832031 0.332031,-1.597657 1,-2.300781 0.730469,-0.632813 1.53125,-0.964844 2.332031,-0.964844 h 7.765625 c 0.902344,0 1.632813,0.332031 2.234375,0.964844 0.601562,0.636718 0.898438,1.433593 0.898438,2.300781 0,0.96875 -0.296876,1.765625 -0.898438,2.402343 -0.601562,0.632813 -1.367188,0.964844 -2.234375,0.964844 H 12.5 c -0.898438,0 -1.667969,-0.332031 -2.332031,-1 -0.667969,-0.699218 -1,-1.5 -1,-2.367187 z"
       id="path8710" />
  </g>
</svg>

<?xml version="1.0" encoding="UTF-8"?>
<svg xmlns="http://www.w3.org/2000/svg" xmlns:xlink="http://www.w3.org/1999/xlink" width="100px" height="100px" viewBox="0 0 100 100" version="1.1">
<g id="surface1">
<path style=" stroke:none;fill-rule:nonzero;fill:rgb(0%,0%,0%);fill-opacity:1;" d="M 9.167969 51.199219 C 9.167969 50.367188 9.5 49.601562 10.167969 48.898438 C 10.898438 48.265625 11.699219 47.933594 12.5 47.933594 L 20.265625 47.933594 C 21.167969 47.933594 21.898438 48.265625 22.5 48.898438 C 23.101562 49.535156 23.398438 50.332031 23.398438 51.199219 C 23.398438 52.167969 23.101562 52.964844 22.5 53.601562 C 21.898438 54.234375 21.132812 54.566406 20.265625 54.566406 L 12.5 54.566406 C 11.601562 54.566406 10.832031 54.234375 10.167969 53.566406 C 9.5 52.867188 9.167969 52.066406 9.167969 51.199219 Z M 20.265625 24.601562 C 20.265625 23.699219 20.566406 22.933594 21.132812 22.332031 C 21.898438 21.667969 22.667969 21.332031 23.5 21.332031 C 24.367188 21.332031 25.132812 21.667969 25.765625 22.300781 L 31.234375 27.800781 C 31.867188 28.535156 32.167969 29.300781 32.167969 30.101562 C 32.167969 31.035156 31.867188 31.832031 31.265625 32.433594 C 30.667969 33.035156 29.933594 33.367188 29.066406 33.367188 C 28.265625 33.367188 27.464844 33.035156 26.734375 32.398438 L 21.132812 27.035156 C 20.566406 26.332031 20.265625 25.5 20.265625 24.601562 Z M 26.933594 69.601562 C 26.933594 68.667969 27.265625 67.898438 27.898438 67.332031 C 28.5 66.765625 29.234375 66.464844 30.167969 66.464844 L 38.933594 66.464844 L 49.300781 56.734375 C 49.632812 56.464844 50 56.464844 50.433594 56.734375 L 60.964844 66.464844 L 70.199219 66.464844 C 71.101562 66.464844 71.867188 66.765625 72.5 67.398438 C 73.132812 68 73.464844 68.765625 73.464844 69.632812 C 73.464844 70.535156 73.132812 71.300781 72.5 71.933594 C 71.867188 72.566406 71.101562 72.898438 70.199219 72.898438 L 58.933594 72.898438 C 58.601562 72.898438 58.265625 72.832031 57.964844 72.667969 L 49.933594 65.101562 L 41.964844 72.667969 C 41.699219 72.832031 41.398438 72.898438 41.035156 72.898438 L 30.167969 72.898438 C 29.265625 72.898438 28.5 72.566406 27.867188 71.933594 C 27.234375 71.265625 26.933594 70.5 26.933594 69.601562 Z M 30 51.199219 C 30 54.433594 30.699219 57.367188 32.066406 60 C 32.132812 60.398438 32.433594 60.601562 32.898438 60.601562 L 39.167969 60.601562 C 39.398438 60.601562 39.566406 60.5 39.667969 60.332031 C 39.765625 60.132812 39.734375 59.933594 39.601562 59.699219 C 37.464844 57.132812 36.398438 54.300781 36.398438 51.199219 C 36.398438 47.464844 37.734375 44.265625 40.398438 41.632812 C 43.066406 39 46.265625 37.699219 50.035156 37.699219 C 53.765625 37.699219 56.933594 39 59.566406 41.632812 C 62.199219 44.265625 63.535156 47.433594 63.535156 51.199219 C 63.535156 54.332031 62.464844 57.167969 60.367188 59.699219 C 60.234375 59.933594 60.199219 60.132812 60.265625 60.332031 C 60.332031 60.535156 60.5 60.601562 60.765625 60.601562 L 67.101562 60.601562 C 67.535156 60.601562 67.800781 60.398438 67.867188 60 C 69.332031 57.433594 70 54.5 70 51.199219 C 70 48.5 69.464844 45.898438 68.398438 43.464844 C 67.332031 41 65.898438 38.898438 64.132812 37.101562 C 62.367188 35.332031 60.234375 33.898438 57.765625 32.832031 C 55.300781 31.765625 52.734375 31.265625 50.035156 31.265625 C 47.332031 31.265625 44.734375 31.800781 42.265625 32.832031 C 39.800781 33.898438 37.667969 35.300781 35.867188 37.101562 C 34.066406 38.867188 32.632812 41 31.566406 43.464844 C 30.535156 45.898438 30 48.464844 30 51.199219 Z M 46.765625 21.332031 L 46.765625 13.667969 C 46.765625 12.699219 47.066406 11.933594 47.699219 11.300781 C 48.332031 10.667969 49.132812 10.367188 50.066406 10.367188 C 51 10.367188 51.765625 10.667969 52.398438 11.300781 C 53.035156 11.933594 53.332031 12.765625 53.332031 13.699219 L 53.332031 21.367188 C 53.332031 22.332031 53.035156 23.101562 52.398438 23.734375 C 51.800781 24.332031 51 24.667969 50.066406 24.667969 C 49.101562 24.667969 48.332031 24.367188 47.699219 23.734375 C 47.066406 23.101562 46.765625 22.300781 46.765625 21.332031 Z M 67.933594 30.132812 C 67.933594 29.300781 68.234375 28.535156 68.832031 27.832031 L 74.234375 22.332031 C 74.867188 21.699219 75.667969 21.367188 76.566406 21.367188 C 77.464844 21.367188 78.265625 21.699219 78.867188 22.332031 C 79.5 22.964844 79.800781 23.734375 79.800781 24.632812 C 79.800781 25.601562 79.5 26.398438 78.933594 27.066406 L 73.332031 32.433594 C 72.632812 33.066406 71.832031 33.398438 71 33.398438 C 70.101562 33.398438 69.367188 33.101562 68.800781 32.464844 C 68.234375 31.832031 67.933594 31.066406 67.933594 30.132812 Z M 76.632812 51.199219 C 76.632812 50.300781 76.933594 49.535156 77.535156 48.898438 C 78.132812 48.265625 78.867188 47.933594 79.734375 47.933594 L 87.566406 47.933594 C 88.464844 47.933594 89.234375 48.265625 89.867188 48.898438 C 90.5 49.535156 90.832031 50.332031 90.832031 51.199219 C 90.832031 52.132812 90.5 52.898438 89.867188 53.566406 C 89.234375 54.234375 88.464844 54.566406 87.566406 54.566406 L 79.734375 54.566406 C 78.832031 54.566406 78.101562 54.234375 77.5 53.601562 C 76.933594 52.933594 76.632812 52.132812 76.632812 51.199219 Z M 76.632812 51.199219 "/>
</g>
</svg>
